img/social/yt.svg

<svg width="60" height="60" viewBox="0 0 60 60" fill="none" xmlns="http://www.w3.org/2000/svg">
<rect width="60" height="60" rx="12" fill="#FF0000"/>
<path d="M48.3082 20.9816C47.8682 19.3416 46.5749 18.0616 44.9482 17.6216C41.9482 16.7949 30.0015 16.7949 30.0015 16.7949C30.0015 16.7949 18.0549 16.7949 15.0549 17.5816C13.4549 18.0216 12.1349 19.3416 11.6949 20.9816C10.9082 23.9683 10.9082 30.1683 10.9082 30.1683C10.9082 30.1683 10.9082 36.3949 11.6949 39.3549C12.1349 40.9949 13.4282 42.2749 15.0549 42.7149C18.0815 43.5416 30.0015 43.5416 30.0015 43.5416C30.0015 43.5416 41.9482 43.5416 44.9482 42.7549C46.5749 42.3149 47.8682 41.0216 48.3082 39.3816C49.0949 36.3949 49.0949 30.1949 49.0949 30.1949C49.0949 30.1949 49.1215 23.9683 48.3082 20.9816ZM26.2015 35.8883V24.4483L36.1349 30.1683L26.2015 35.8883Z" fill="white"/>
</svg>

<svg width="60" height="60" fill="none" xmlns="http://www.w3.org/2000/svg"><rect width="60" height="60" rx="12" fill="red"/><path d="M48.308 20.982a4.776 4.776 0 0 0-3.36-3.36c-3-.827-14.947-.827-14.947-.827s-11.946 0-14.946.787c-1.6.44-2.92 1.76-3.36 3.4-.787 2.986-.787 9.186-.787 9.186s0 6.227.787 9.187a4.776 4.776 0 0 0 3.36 3.36c3.026.827 14.947.827 14.947.827s11.946 0 14.946-.787a4.794 4.794 0 0 0 3.36-3.373c.787-2.987.787-9.187.787-9.187s.026-6.227-.787-9.213ZM26.201 35.888v-11.44l9.934 5.72-9.933 5.72Z" fill="#fff"/></svg>
